!!!COM: Haydn, Franz Joseph
!!!OTL: String Quartet in G Major
!!!OPS: Opus 33
!!!ONM: No. 5
!!!OMD: Vivace assai
!!!OMV: 1
!!!SCT: H III:41
!!!SCA: Thematisch-bibliographisches Werkevererzeichnis (A. van Hoboken)
!!!YOR: Trautwein Edition
!!!ENC: Frances Bennion
!!!CDT: 1732/3/31/-1809/5/31/
!!!CNT: Oesterreich
!!!YEC: Copyright (c) 1994, 2000 Center for Computer Assisted Research in the Humanities
!!!YEM: Rights to all derivative editions reserved.
!!!YEM: Refer to licensing agreement for further details.
!!!YEN: United States of America
**kern	**kern	**kern	**kern
*k[f#]	*k[f#]	*k[f#]	*k[f#]
*G:	*G:	*G:	*G:
*clefF4	*clefC3	*clefG	*clefG
*M2/4	*M2/4	*M2/4	*M2/4
4D	4c	4f# 4A	4.d
4r	4r	4r	.
.	.	.	16e
.	.	.	16f#
=2	=2	=2	=2
4GG	4B	4B 4g	4g
4r	4r	8r	8r
.	.	8g	8b
=3	=3	=3	=3
8GG	8d	4.g	4.b
8G	8d	.	.
8G	8d	.	.
8G	8c	8a	8cc
=4	=4	=4	=4
4G	4B	8b	8dd
.	.	8b	8dd
4r	4r	8b	8dd
.	.	8f#	8a
=5	=5	=5	=5
8DD	8c	4.f#	4.a
8D	8c	.	.
8D	8c	.	.
8D	8B	8g	8b
=6	=6	=6	=6
4D	4A	8a	8cc
.	.	8a	8cc
4r	4r	8a	8cc
.	.	8r	8g
=7	=7	=7	=7
8E	2B	4.B	2g
8E	.	.	.
8E	.	.	.
8E	.	16c	.
.	.	16d	.
=8	=8	=8	=8
8C	4.c	2e	4.a
8C	.	.	.
8C	.	.	.
8C	8A	.	16b
.	.	.	16cc
=9	=9	=9	=9
8D	4.F#	2c	4.d
8D	.	.	.
8D	.	.	.
8D	16G	.	16e
.	16A	.	16f#
=10	=10	=10	=10
8GG	8B	8B	4g
8G	8d	8b 8d	.
8G	8d	8b 8d	8r
8G	8d	8b 8d	8gg
=11	=11	=11	=11
8G	2f# 2A	2cc 2d	8ff#
8G	.	.	16ee
.	.	.	16dd
8G	.	.	8cc
8G	.	.	16b
.	.	.	16a
=12	=12	=12	=12
8GG	8G 8g	8b 8d	4g
8G	8d	8b 8d	.
8G	8d	8b 8d	8r
8G	8d	8b 8d	16bb
.	.	.	16gg
=13	=13	=13	=13
8G	2f# 2A	2cc 2d	8ff#
8G	.	.	16ee
.	.	.	16dd
8G	.	.	8cc
8G	.	.	16b
.	.	.	16a
=14	=14	=14	=14
8GG	8G 8g	8b 8d	4g
8G	8d	8b 8d	.
8G	8d	8d 8b	8r
8G	8d	16b	16ddd
.	.	16g	16bb
=15	=15	=15	=15
8c	[2d	8f#	8aa
8c	.	8a	16gg
.	.	.	16ff#
8B	.	8g	8gg
8B	.	16b	16ddd
.	.	16g	16bb
=16	=16	=16	=16
8c	2d]	8f#	8aa
8c	.	8a	16gg
.	.	.	16ff#
8B	.	8g	8gg
8F#	.	8dd	8aa
=17	=17	=17	=17
8G	[2B	2dd	4.bb
8G	.	.	.
8G	.	.	.
8G	.	.	16ccc#
.	.	.	16ddd
=18	=18	=18	=18
8G	2B]	2b	4.eee
8G	.	.	.
8G	.	.	.
8G	.	.	16fff#
.	.	.	16ggg
=19	=19	=19	=19
8A	4.c#	2g	4.aa
8A	.	.	.
8A	.	.	.
8A	16d	.	16bb
.	16e	.	16ccc#
=20	=20	=20	=20
8D	8d	8f#	4ddd
8D	8f#	8dd	.
8AA	8g	8cc#	8eee
8AA	8g	8cc#	16ddd
.	.	.	16eee
=21	=21	=21	=21
8D	8f#	8dd	4ddd
8D	8f#	8ff#	.
8AA	8g	8cc#	8eee
8AA	8g	8cc#	16ddd
.	.	.	16eee
=22	=22	=22	=22
4D	4f#	4dd	4ddd
4D	4f#	4dd	4ddd
=23	=23	=23	=23
4D	4f#	2dd	2ddd
4r	4r	.	.
=24	=24	=24	=24
4.r	2r	4cc#	4ccc#
.	.	8cc	8ccc
8G	.	8b	8bb
=25	=25	=25	=25
4.G	[2d	4.b	4.bb
8A	.	8cc	8ccc
=26	=26	=26	=26
8B	2d_	8dd	8ddd
8B	.	8dd	8ddd
8B	.	8dd	8ddd
8F#	.	8a	8aa
=27	=27	=27	=27
4.F#	2d_	4.a	4.aa
8G	.	8b	8bb
=28	=28	=28	=28
8A	4d]	8cc	8ccc
8A	.	8cc	8ccc
8A	4r	8cc	8ccc
8r	.	8g	8gg
=29	=29	=29	=29
8BB	8d	4.g	4.gg
8BB	8d	.	.
8BB	8d	.	.
8BB	8d	8g#	8gg#
=30	=30	=30	=30
8C	8e	4.a	4.aa
8C	8e	.	.
8C	8c	.	.
8C	8A	16b	16bb
.	.	16cc	16ccc
=31	=31	=31	=31
8D	4.F#	2c	4.dd
8D	.	.	.
8D	.	.	.
8D	16G	.	16ee
.	16A	.	16ff#
=32	=32	=32	=32
8GG	8B	8B	4gg
8G	8d	8b 8d	.
8G	8d	8b 8d	8r
8G	8d	8b 8d	16bb
.	.	.	16gg
=33	=33	=33	=33
8G	2A 2f#	2cc 2d	8ff#
8G	.	.	16ee
.	.	.	16dd
8G	.	.	8cc
8G	.	.	16b
.	.	.	16a
=34	=34	=34	=34
8GG	8G 8g	8b 8d	4g
8G	8d	8b 8d	.
8G	8d	8b 8d	8r
8G	8d	8d 8b	16bb
.	.	.	16gg
=35	=35	=35	=35
8A	[2b	2dd# 2f#	8ff#
8A	.	.	16ee
.	.	.	16dd#
8A	.	.	8dd#
8A	.	.	16cc#
.	.	.	16b
=36	=36	=36	=36
8G	8b]	8ee 8e	4ee
8G	8e	8b	.
8G	8e	8b	8r
8G	8e	8b	16bb
.	.	.	16gg
=37	=37	=37	=37
8G	[2a	2cc# 2e	16ff#
.	.	.	16ee
8G	.	.	16gg
.	.	.	16ee
8G	.	.	8cc#
8G	.	.	16b
.	.	.	16a
=38	=38	=38	=38
8F#	8a]	8dd 8d	4dd
8F#	8d	8a	.
8F#	8d	8a	8r
8F#	8r	8a	16ddd
.	.	.	16aa
=39	=39	=39	=39
8E	4.r	4cc#	8gg
8E	.	.	16ff#
.	.	.	16gg
8D	.	8dd	8ff#
8r	8d	8f#	16aa
.	.	.	16ff#
=40	=40	=40	=40
4.r	8g	8b	8ee
.	8g	8b	16dd
.	.	.	16ee
.	8f#	8a	8dd
8F#	8r	8a	16ddd
.	.	.	16aa
=41	=41	=41	=41
8E	4.r	4cc#	8gg
8E	.	.	16ff#
.	.	.	16gg
8D	.	8dd	8ff#
8D	8d	8f#	16aa
.	.	.	16ff#
=42	=42	=42	=42
4G	8g	8b	8ee
.	8g	8b	16dd
.	.	.	16ee
8r	8f#	8a	8dd
8D	8r	8r	16aa
.	.	.	16ff#
=43	=43	=43	=43
8GG	2r	4d	8bb
8GG	.	.	8bb
8GG	.	4d#	8gg
8GG	.	.	16ff#
.	.	.	16gg
=44	=44	=44	=44
8GG	2B	[2e	8ee
8GG	.	.	8ee
8GG#	.	.	8dd
8GG#	.	.	16cc#
.	.	.	16dd
=45	=45	=45	=45
8AA	16c#	16e]	16cc#
.	16A	16A	16a
16BB	16B	16B	16b
16C#	16c#	16c#	16cc#
16D	16d	16d	16dd
16E	16e	16e	16ee
16F#	16f#	16f#	16ff#
16G#	16g#	16g#	16gg#
=46	=46	=46	=46
8A	8a	8a	8aa
8c#	8cc#	8cc#	8ccc#
8e	8ee	8ee	8eee
8c#	8cc#	8cc#	8ccc#
=47	=47	=47	=47
8A	8a	8a	8aa
8r	8r	8r	8r
8A	8e	8cc#	8aa
8r	8r	8r	8r
=48	=48	=48	=48
8A	8e	8cc#	8aa
4.r	4.r	4.r	4r
.	.	.	8aa
=49	=49	=49	=49
[2DD	2r	4.f#	4.aa
.	.	8e#	8gg#
=50	=50	=50	=50
2DD_	2r	8f#	8aa
.	.	8e#	8gg#
.	.	8f#	8aa
.	.	8e#	8gg#
=51	=51	=51	=51
2DD_	[2A	[2f#	8aa
.	.	.	8ddd
.	.	.	8fff#
.	.	.	8eee
=52	=52	=52	=52
2DD]	2A_	2f#]	8ddd
.	.	.	8ccc#
.	.	.	8bb
.	.	.	8aa
=53	=53	=53	=53
[2AA	4A]	4.e	4.gg
.	4r	.	.
.	.	8d#	8ff#
=54	=54	=54	=54
2AA_	2r	8e	8gg
.	.	8d#	8ff#
.	.	8e	8gg
.	.	8d#	8ff#
=55	=55	=55	=55
2AA_	[2c#	[2e	8gg
.	.	.	8ccc#
.	.	.	8eee
.	.	.	8ddd
=56	=56	=56	=56
2AA]	2c#]	2e]	8ccc#
.	.	.	8bb
.	.	.	8aa
.	.	.	8gg
=57	=57	=57	=57
4D	8d	8f#	8ff#
.	4d	4ff#	8aa
4r	.	.	[4aa
.	8c#	8ee#	.
=58	=58	=58	=58
2r	8d	8ff#	4.aa]
.	8c#	8ee#	.
.	8d	8ff#	.
.	8A#	8cc#	8gg
=59	=59	=59	=59
4.B	4B	4.dd	8ff#
.	.	.	8ff#
.	4r	.	[4ff#
8A#	.	8cc#	.
=60	=60	=60	=60
8B	2r	8dd	4.ff#]
8A#	.	8cc#	.
8B	.	8dd	.
8F#	.	8a#	8ee
=61	=61	=61	=61
4G	[2B	4b	8dd
.	.	.	4bb
4F#	.	4dd#	.
.	.	.	[8aa
=62	=62	=62	=62
4E	4B]	4ee	8aa]
.	.	.	4gg#
4A	[4A	[4cc#	.
.	.	.	[8gg
=63	=63	=63	=63
4D	4A]	8cc#]	8gg]
.	.	4dd	4ff#
4B-	4B-	.	.
.	.	[8g	[8ee
=64	=64	=64	=64
4A	[2A	8g]	8ee]
.	.	4f#	4dd
4AA	.	.	.
.	.	8e	8cc#
=65	=65	=65	=65
4DD	4A]	4d	4.ff#
4r	4r	4r	.
.	.	.	8gg
=66	=66	=66	=66
4.d	8r	4.f#	8aa
.	16a	.	8aa
.	16f#	.	.
.	8d	.	8aa
8e	8r	8g	8dd
=67	=67	=67	=67
8f#	2r	8a	4.dd
8f#	.	8a	.
8f#	.	8a	.
8B	.	8d	8ee
=68	=68	=68	=68
4.B	8r	4.d	8ff#
.	16f#	.	8ff#
.	16d	.	.
.	8B	.	8ff#
8c#	8r	8e	8b
=69	=69	=69	=69
8d	2r	8f#	4.b
8d	.	8f#	.
8d	.	8f#	.
8G	.	8B	8cc#
=70	=70	=70	=70
4.G	8r	4.B	8dd
.	16d	.	8dd
.	16B	.	.
.	8G	.	8dd
8A	8r	8c#	8g
=71	=71	=71	=71
8B	2r	8d	4.g
8B	.	8d	.
8B	.	8d	.
8E	.	8G	8a
=72	=72	=72	=72
8E	[2g [2B	4.G	8b
8E	.	.	8b
8E	.	.	8b
8E	.	8g	8g
=73	=73	=73	=73
8E	2g_ 2B_	8g	8ee
8E	.	8g	8ee
8E	.	8g	8ee
8E	.	8g	8b
=74	=74	=74	=74
8E	2g] 2B]	8b	8gg
8E	.	8b	8gg
8E	.	8b	8gg
8E	.	8b	8ee
=75	=75	=75	=75
8D#	[2f# [2B	8b 8a	16bb
.	.	.	16ff#
8D#	.	8a 8b	16bb
.	.	.	16ff#
8D#	.	8b 8a	16bb
.	.	.	16ff#
8D#	.	8b 8a	16bb
.	.	.	16ff#
=76	=76	=76	=76
8D#	2f#] 2B]	8b 8a	16bb
.	.	.	16ff#
8D#	.	8a 8b	16bb
.	.	.	16ff#
8D#	.	8a 8b	16bb
.	.	.	16ff#
8D#	.	8a 8b	16bb
.	.	.	16ff#
=77	=77	=77	=77
8E	2g 2B	2b 2g	2gg
8E	.	.	.
8E	.	.	.
8E	.	.	.
=78	=78	=78	=78
8D	2b- 2f	2b- 2f	2b- 2bb-
8D	.	.	.
8D	.	.	.
8D	.	.	.
=79	=79	=79	=79
8C#	2a 2e	[2a [2e	[2a [2aa
8C#	.	.	.
8C#	.	.	.
8C#	.	.	.
=80	=80	=80	=80
8C#	2e 2c#	2a] 2e]	4a] 4aa]
8C#	.	.	.
8C#	.	.	4gg
8C#	.	.	.
=81	=81	=81	=81
8D	8d	8a	8ff#
8D	8d	16g	16ee
.	.	16a	16ff#
8GG	8G	8b	8gg
8GG	8G	8g	8ee
=82	=82	=82	=82
8AA	8A	4f#	4dd
8AA	8A	.	.
8AA	8A	4e	4cc#
8AA	8A	.	.
=83	=83	=83	=83
8F#	8A	8d	8dd
8F#	8A	8dd	8ff#
8F#	8A	8dd	8aa
8F#	8A	8dd	8ddd
=84	=84	=84	=84
8F#	8A	8dd	8fff#
8F#	8A	8dd	8eee
8F#	8A	8dd	8ddd
8F#	8A	8dd	8ccc#
=85	=85	=85	=85
8G	8B	8dd	8r
8G	8B	8dd	8bb
8G	8B	8dd	8r
8G	8B	8dd	8ddd
=86	=86	=86	=86
8G	8B	8dd	8r
8G	8B	8dd	8bb
8G	8B	8dd	8r
8G	8B	8dd	8gg
=87	=87	=87	=87
8A	8A	8dd	8ff#
8A	8f#	8dd	4aa
8A	8f#	8dd	.
8A	8f#	8dd	16ff#
.	.	.	16dd
=88	=88	=88	=88
8AA	8g	8cc#	2ee
8AA	8g	8cc#	.
8AA	8g	8cc#	.
8AA	8g	8cc#	.
=89	=89	=89	=89
8D	8f#	8dd	4dd
8D	8d	8f#	.
8D	8d	8f#	8r
8r	8r	8r	8dd
=90	=90	=90	=90
8r	8r	8r	8dd
8E	8d	8g	4r
8E	8d	8g	.
8r	8r	8r	8dd
=91	=91	=91	=91
8r	8r	8r	8dd
8F#	8d	8a	4r
8F#	8d	8a	.
8r	8r	8r	8dd
=92	=92	=92	=92
8r	8r	8r	8dd
8G	8d	8b	4r
8G	8d	8b	.
8r	8r	8r	8cc#
=93	=93	=93	=93
8r	8r	8r	8cc#
8G	8e	8b-	4r
8G	8e	8b-	.
8r	8r	8r	8cc
=94	=94	=94	=94
8r	8r	8r	8cc
8F#	8d	8a	4.r
8F#	8d	8a	.
8r	8r	8r	.
=95	=95	=95	=95
2r	2r	4.r	4.r
.	.	8g	8b-
=96	=96	=96	=96
8GG	8d	4.g	4.b-
8G	8d	.	.
8G	8d	.	.
8G	8c	8a	8cc
=97	=97	=97	=97
4G	4B-	8b-	8dd
.	.	8b-	8dd
4r	4r	8b-	8dd
.	.	8f#	8a
=98	=98	=98	=98
8DD	8c	4.f#	4.a
8D	8c	.	.
8D	8c	.	.
8D	8B-	8g	8b-
=99	=99	=99	=99
4D	4A	8a	8cc
.	.	8a	8cc
4r	4r	8a	8cc
.	.	8r	8g
=100	=100	=100	=100
8E-	2B-	4.B-	2g
8E-	.	.	.
8E-	.	.	.
8E-	.	16c	.
.	.	16d	.
=101	=101	=101	=101
8C	4.c	2e-	4.a-
8C	.	.	.
8C	.	.	.
8C	8A	.	16b-
.	.	.	16cc
=102	=102	=102	=102
8D	4.F#	2c	4.d
8D	.	.	.
8D	.	.	.
8D	16G	.	16e
.	16A	.	16f#
=103	=103	=103	=103
8GG	8G	8B	4g
8G	8d	8d 8b	.
8G	8d	8b 8d	8r
8G	8d	8b 8d	8gg
=104	=104	=104	=104
8G	2f# 2A	2cc 2d	8ff#
8G	.	.	16ee
.	.	.	16dd
8G	.	.	8cc
8G	.	.	16b
.	.	.	16a
=105	=105	=105	=105
8GG	8G 8g	8b 8d	4g
8G	8g	8b 8d	.
8G	8g	8b 8d	8r
8G	8g	8g	8g
=106	=106	=106	=106
8F#	8f#	8f#	8f#
16E	16e	16e	16e
16D	16d	16d	16d
8C	8c	8c	8c
16BB	16B	16B	16B
16AA	16A	16A	16A
=107	=107	=107	=107
8GG	[2G	4G	[2G
8GG	.	.	.
8GG	.	4r	.
8GG	.	.	.
=108	=108	=108	=108
8GG	2G]	2r	2G]
8GG	.	.	.
8GG	.	.	.
8GG	.	.	.
=109	=109	=109	=109
8GG	[2F	2r	2A-
8GG	.	.	.
8GG	.	.	.
8GG	.	.	.
=110	=110	=110	=110
8GG	2F]	2r	2B
8GG	.	.	.
8GG	.	.	.
8GG	.	.	.
=111	=111	=111	=111
8CC	8E	4.r	4.c
8C	4e	.	.
8C	.	.	.
8C	16f	8cc	16d
.	16g	.	16e
=112	=112	=112	=112
8C	2d	8b	2f 2G
8C	.	16a	.
.	.	16g	.
8C	.	8f	.
8C	.	16e	.
.	.	16d	.
=113	=113	=113	=113
8CC	8e	8c	4e 4G
8C	8g	8e	.
8C	8cc	8g	8r
8C	8cc	8cc	8ccc
=114	=114	=114	=114
8C	2b	2f 2dd	8bb
8C	.	.	16aa
.	.	.	16gg
8C	.	.	8ff
8C	.	.	16ee
.	.	.	16dd
=115	=115	=115	=115
4C	4cc	8e 8cc	8cc
.	.	4ee	4gg
8r	8r	.	.
8c	8ee	8ee	[8gg
=116	=116	=116	=116
8B	8dd	2ff	8gg]
16A	16cc	.	4gg
16G	16b	.	.
8F	8dd	.	.
16E	16cc	.	[8gg
16D	16b	.	.
=117	=117	=117	=117
4C	4cc	8ee	8gg]
.	.	4ee	4gg
4r	8r	.	.
.	8e	8cc	[8gg
=118	=118	=118	=118
2r	8f	8b	8gg]
.	8f	16a	4gg
.	.	16g	.
.	8e	8cc	.
.	16d	8cc	[8gg
.	16c	.	.
=119	=119	=119	=119
4.r	8f	8b	8gg]
.	8f	16a	4gg
.	.	16g	.
.	8e	8cc	.
8C	16d	8ee	8ccc
.	16c	.	.
=120	=120	=120	=120
8G	8d	8ff	8bb
8G	8d	8ff	16aa
.	.	.	16gg
8C	8e	8ee	8ccc
8C	8e	8ee	8ccc
=121	=121	=121	=121
8G	8d	8ff	8bb
8G	8d	8ff	16aa
.	.	.	16gg
8C	8e	8ee	8ccc
8C	8e	8g	8ccc
=122	=122	=122	=122
8c	4c	2g	8eee
8c	.	.	8eee
8c	4r	.	[4eee
8c	.	.	.
=123	=123	=123	=123
8c	2r	2g#	8eee]
8c	.	.	8ddd
8c	.	.	8ccc
8c	.	.	8bb
=124	=124	=124	=124
8c	[2e	2a	8aa
8c	.	.	8aa
8c	.	.	[4aa
8c	.	.	.
=125	=125	=125	=125
8c	2e]	2a#	8aa]
8c	.	.	8gg
8c	.	.	8ff#
8c	.	.	8ee
=126	=126	=126	=126
8B	8d#	8b	8bb
8B	8f#	8dd#	8bb
8B	8g	8ee	8gg
8B	8g	8ee	16ff#
.	.	.	16ee
=127	=127	=127	=127
8B	8f#	8dd#	8bb
8B	8f#	8dd#	8bb
8B	8g	8ee	8gg
8B	8g	8ee	16ff#
.	.	.	16ee
=128	=128	=128	=128
8B	8f#	8dd#	8ff#
8B	8B	8d#	8ff#
8G	8B	8e	8gg
16F#	8B	8e	8gg
16E	.	.	.
=129	=129	=129	=129
8B	8B	8d#	8ff#
8B	8B	8d#	8ff#
8G	8B	8e	8gg
16F#	8B	8e	8gg
16E	.	.	.
=130	=130	=130	=130
8B	8B	8d#	8ff#
8r	8r	8r	8r
8BB	8B	8d#	8bb
8r	8r	8r	8r
=131	=131	=131	=131
4BB	4B	8d#	8bb
.	.	4r	4r
4r	4r	.	.
.	.	8g	8bb
=132	=132	=132	=132
[2EE	2r	4.g	4.bb
.	.	8f#	8aa#
=133	=133	=133	=133
2EE_	2r	8g	8bb
.	.	8f#	8aa#
.	.	8g	8bb
.	.	8f#	8aa#
=134	=134	=134	=134
2EE_	[2B	[2g	8bb
.	.	.	8eee
.	.	.	8ggg
.	.	.	8fff#
=135	=135	=135	=135
2EE]	2B_	2g]	8eee
.	.	.	8ddd
.	.	.	8ccc
.	.	.	8bb
=136	=136	=136	=136
[2BB	4B]	4.f#	4.aa
.	4r	.	.
.	.	8e#	8gg#
=137	=137	=137	=137
2BB_	2r	8f#	8aa
.	.	8e#	8gg#
.	.	8f#	8aa
.	.	8e#	8gg#
=138	=138	=138	=138
2BB_	[2d#	[2f#	8aa
.	.	.	8ddd#
.	.	.	8fff#
.	.	.	8eee
=139	=139	=139	=139
4BB]	4d#]	4f#]	8ddd#
.	.	.	8ccc
4r	4r	4r	8bb
.	.	.	8aa
=140	=140	=140	=140
2r	4.dd	4.ff	[2gg#
.	8cc#	8ee	.
=141	=141	=141	=141
2r	8dd	8ff	2gg#_
.	8cc#	8ee	.
.	8dd	8ff	.
.	8cc#	8ee	.
=142	=142	=142	=142
4.e	[2dd	[2ff	2gg#_
8f	.	.	.
=143	=143	=143	=143
8e	2dd]	2ff]	2gg#]
8f	.	.	.
8e	.	.	.
8f	.	.	.
=144	=144	=144	=144
[2e	4.dd	4.ff	4.gg#
.	8cc	8ee	8aa
=145	=145	=145	=145
2e_	8b	8dd	8bb
.	8b	8dd	8bb
.	8b	8dd	8bb
.	8cc	8ee	8aa
=146	=146	=146	=146
2e_	4.dd	4.ff	4.gg#
.	8cc	8ee	8aa
=147	=147	=147	=147
2e_	8b	8dd	8bb
.	8b	8dd	8bb
.	8b	8dd	8bb
.	8cc	8ee	8aa
=148	=148	=148	=148
2e_	8dd	8ff	8gg#
.	8cc	8ee	8aa
.	8dd	8ff	8gg#
.	8cc	8ee	8aa
=149	=149	=149	=149
2e]	8dd	8ff	8gg#
.	8cc	8ee	8aa
.	8b	8dd	8bb
.	8a	8cc	8ccc
=150	=150	=150	=150
8e	8g#	8b	8ddd
8e	8g#	8b	8ddd
8e	8g#	8b	8ddd
8e	8g#	8b	8ddd
=151	=151	=151	=151
4e	4g#	4b	4ddd
4r	4r	4r	4r
=152	=152	=152	=152
8A	2f 2a	2ff 2cc	2ccc
8A	.	.	.
8A	.	.	.
8A	.	.	.
=153	=153	=153	=153
8G	2b- 2g	2ee 2cc	16bb- 16cc
.	.	.	16gg
8G	.	.	16bb-
.	.	.	16gg
8G	.	.	16bb-
.	.	.	16gg
8G	.	.	16bb-
.	.	.	16gg
=154	=154	=154	=154
8F	2a 2cc	2ff 2cc	2aa 2a
8F	.	.	.
8F	.	.	.
8F	.	.	.
=155	=155	=155	=155
8E	[2a	2cc#	16gg 16a
.	.	.	16ee
8E	.	.	16gg
.	.	.	16ee
8E	.	.	16gg
.	.	.	16ee
8E	.	.	16gg
.	.	.	16ee
=156	=156	=156	=156
8D	2a]	2dd	[2ff
8D	.	.	.
8D	.	.	.
8D	.	.	.
=157	=157	=157	=157
8d	2g#	2b	2ff]
8d	.	.	.
8d	.	.	.
8d	.	.	.
=158	=158	=158	=158
8c#	2a	2a	2ee
8c#	.	.	.
8c#	.	.	.
8c#	.	.	.
=159	=159	=159	=159
8c	2a#	2ee	2gg
8c	.	.	.
8c	.	.	.
8c	.	.	.
=160	=160	=160	=160
8B	[2b	2gg	2bb
8B	.	.	.
8B	.	.	.
8B	.	.	.
=161	=161	=161	=161
8B	2b]	2ff#	2dd#
8B	.	.	.
8B	.	.	.
8B	.	.	.
=162	=162	=162	=162
8A	8f#	8dd#	16ccc
.	.	.	16aa
8A	4f#	4dd#	16ccc
.	.	.	16aa
8A	.	.	16ccc
.	.	.	16aa
8A	[8f#	[8dd#	16ccc
.	.	.	16aa
=163	=163	=163	=163
8A	8f#]	8dd#]	16ccc
.	.	.	16aa
8A	4f#	4dd#	16ccc
.	.	.	16aa
8A	.	.	16ccc
.	.	.	16aa
8A	8f#	8dd#	16ccc
.	.	.	16aa
=164	=164	=164	=164
8G	8e	8ee	8bb
8r	8r	8ee	8bb
8A	8c	8r	8r
8r	8r	8ff#	8aa
=165	=165	=165	=165
8B	8B	8r	8r
8r	8r	8ee	8gg
8B	8B	8r	8r
8r	8r	8dd#	8ff#
=166	=166	=166	=166
8A	16d#	16ff#	8ccc
.	16f#	16dd#	.
8A	16d#	16ff#	4ccc
.	16f#	16dd#	.
8A	16d#	16ff#	.
.	16f#	16dd#	.
8A	16d#	16ff#	[8ccc
.	16f#	16dd#	.
=167	=167	=167	=167
8A	16d#	16ff#	8ccc]
.	16f#	16dd#	.
8A	16d#	16ff#	4ccc
.	16f#	16dd#	.
8A	16d#	16ff#	.
.	16f#	16dd#	.
8A	16d#	16ff#	8ccc
.	16f#	16dd#	.
=168	=168	=168	=168
8G	8e	8ee	8bb
8r	8r	8ee	8bb
8A	8c	8r	8r
8r	8r	8ff#	8aa
=169	=169	=169	=169
8B	8B	8r	8r
8r	8r	8ee	8gg
8BB	8B	8r	8r
8r	8r	8dd#	8ff#
=170	=170	=170	=170
4E	8e	8ee	4ee
.	8e	8g	.
4r	8e	8g	8r
.	8r	8r	8ee
=171	=171	=171	=171
2r	8r	8r	8ee
.	8f#	8a	4r
.	8f#	8a	.
.	8r	8r	8ee
=172	=172	=172	=172
2r	8r	8r	8ee
.	8g	8b	4r
.	8g	8b	.
.	8r	8r	8ff
=173	=173	=173	=173
2r	8r	8r	8ff
.	8g	8b	4.r
.	8g	8b	.
.	8r	8r	.
=174	=174	=174	=174
2r	2r	2r	2r
=175	=175	=175	=175
2r	2r	4.r	4.r
.	.	8dd	8ff
=176	=176	=176	=176
8r	8r	8dd	8ff
8G#	8B	4r	4r
8G#	8B	.	.
8r	8r	8cc	8ee
=177	=177	=177	=177
8r	8r	8cc	8ee
8A	8c	4r	4r
8A	8c	.	.
8r	8r	8cc	8ee-
=178	=178	=178	=178
8r	8r	8cc	8ee-
8F#	8A	4r	4r
8F#	8A	.	.
8r	8r	8cc	8dd
=179	=179	=179	=179
8r	8r	8cc	8dd
8f#	8a	4.r	4.r
8f#	8a	.	.
8r	8r	.	.
=180	=180	=180	=180
2r	2r	2r	2r
=181	=181	=181	=181
2r	2r	2r	2r
=182	=182	=182	=182
4D	4c	4A 4f#	4.d
4r	4r	4r	.
.	.	.	16e
.	.	.	16f#
=183	=183	=183	=183
4GG	4B	4g 4G	4g
4r	4r	8r	8r
.	.	8g	8b
=184	=184	=184	=184
8GG	8d	4.g	4.b
8G	8d	.	.
8G	8d	.	.
8G	8c	8a	8cc
=185	=185	=185	=185
4G	4B	8b	8dd
.	.	8b	8dd
4r	4r	8b	8dd
.	.	8f#	8a
=186	=186	=186	=186
8DD	8c	4.f#	4.a
8D	8c	.	.
8D	8c	.	.
8D	8B	8g	8b
=187	=187	=187	=187
4D	4A	8a	8cc
.	.	8a	8cc
4r	4r	8a	8cc
.	.	8r	8g
=188	=188	=188	=188
8E	2B	4.B	2g
8E	.	.	.
8E	.	.	.
8E	.	16c	.
.	.	16d	.
=189	=189	=189	=189
8C	4.c	2e	4.a
8C	.	.	.
8C	.	.	.
8C	8A	.	16b
.	.	.	16cc
=190	=190	=190	=190
8D	4.F#	2c	4.d
8D	.	.	.
8D	.	.	.
8D	16G	.	16e
.	16A	.	16f#
=191	=191	=191	=191
8GG	8B	8B	4g
8G	8d	8b 8d	.
8G	8d	8b 8d	8r
8G	8d	8b 8d	8gg
=192	=192	=192	=192
8G	2A 2f#	2cc 2d	8ff#
8G	.	.	16ee
.	.	.	16dd
8G	.	.	8cc
8G	.	.	16b
.	.	.	16a
=193	=193	=193	=193
8GG	8G 8g	8b 8d	4g
8G	8d	8b 8d	.
8G	8d	8b 8d	8r
8G	8d	8d 8b	16bb
.	.	.	16gg
=194	=194	=194	=194
8G	2f# 2A	2cc 2d	8ff#
8G	.	.	16ee
.	.	.	16dd
8G	.	.	8cc
8G	.	.	16b
.	.	.	16a
=195	=195	=195	=195
8GG	8G 8g	8b 8d	4g
8G	8d	8d 8b	.
8G	8d	8b 8d	8r
8G	8d	16b	16ddd
.	.	16g	16bb
=196	=196	=196	=196
8c	[2d	8f#	8aa
8c	.	8a	16gg
.	.	.	16ff#
8B	.	8g	8gg
8B	.	16b	16ddd
.	.	16g	16bb
=197	=197	=197	=197
8c	2d]	8f#	8aa
8c	.	8a	16gg
.	.	.	16ff#
8B	.	8g	8gg
8F#	.	8dd	8aa
=198	=198	=198	=198
8G	[2B	2dd	4.bb
8G	.	.	.
8G	.	.	.
8G	.	.	16ccc#
.	.	.	16ddd
=199	=199	=199	=199
8G	2B]	2b	4.eee
8G	.	.	.
8G	.	.	.
8G	.	.	16fff#
.	.	.	16ggg
=200	=200	=200	=200
8A	4.c#	2g	4.aa
8A	.	.	.
8A	.	.	.
8A	16d	.	16bb
.	16e	.	16ccc#
=201	=201	=201	=201
8D	8d	8f#	4ddd
8D	8f#	8dd	.
8AA	8g	8cc#	8eee
8AA	8g	8cc#	16ddd
.	.	.	16eee
=202	=202	=202	=202
8D	8f#	8dd	4ddd
8D	8f#	8ff#	.
8AA	8g	8cc#	8eee
8AA	8g	8cc#	16ddd
.	.	.	16eee
=203	=203	=203	=203
8D	8f#	8dd	8ddd
8r	8r	8r	8r
8D	8f#	8dd	8ddd
8r	8r	8r	8r
=204	=204	=204	=204
4D	4f#	2dd	2ddd
4r	4r	.	.
=205	=205	=205	=205
2r	2r	4cc#	4ccc#
.	.	8cc	8ccc
.	.	8b	8bb
=206	=206	=206	=206
8r	8r	4.gg	4.bb
8G	8b	.	.
[4G	[4b	.	.
.	.	8aa	8ccc
=207	=207	=207	=207
8G]	8b]	8bb	8ddd
8A	8cc	8bb	8ddd
8B	8dd	8bb	8ddd
8B	8dd	8r	8r
=208	=208	=208	=208
8B	8dd	8r	8r
4r	4r	16gg	16bb
.	.	16aa	16ccc
.	.	8bb	8ddd
16G	16b	8r	8r
16A	16cc	.	.
=209	=209	=209	=209
8B	8dd	8r	8r
4r	4r	16gg	16bb
.	.	16aa	16ccc
.	.	8bb	8ddd
16G	16b	8r	8r
16A	16cc	.	.
=210	=210	=210	=210
8B	8dd	8r	8r
4r	4r	16ee	16gg
.	.	16ff#	16aa
.	.	8gg	8bb
16e	16g	8r	8r
16f#	16a	.	.
=211	=211	=211	=211
8g	8b	8r	8r
4r	4r	16cc	16ee
.	.	16dd	16ff#
.	.	8ee	8gg
16c	16e	8r	8r
16d	16f#	.	.
=212	=212	=212	=212
8e	8g	8r	8r
4r	4r	16a	16cc
.	.	16b	16dd
.	.	8cc	8ee
16A	16c	8r	8r
16B	16d	.	.
=213	=213	=213	=213
8c	8e	4.r	8r
4.r	4.r	.	16a
.	.	.	16b
.	.	.	8cc
.	.	16f#	8cc
.	.	16g	.
=214	=214	=214	=214
4.r	8r	[2a	[2cc
.	16d	.	.
.	16e	.	.
.	[4f#	.	.
16C	.	.	.
16D	.	.	.
=215	=215	=215	=215
8E-	4.f#]	4.a]	4.cc]
16C	.	.	.
16D	.	.	.
8E-	.	.	.
8r	8r	8r	16a
.	.	.	16b-
=216	=216	=216	=216
2r	2r	2r	8cc
.	.	.	16cc
.	.	.	16dd
.	.	.	8ee-
.	.	.	8ee-
=217	=217	=217	=217
4.r	8f#	8cc	8ee-
.	8f#	8cc	8dd
.	8f#	8cc	[4aa
16D	8f#	8cc	.
16E	.	.	.
=218	=218	=218	=218
4F#	8f#	8cc	4.aa]
.	8f#	8cc	.
4r	8f#	8cc	.
.	8f#	8cc	8ee-
=219	=219	=219	=219
4.r	8g	8b-	8ee-
.	8g	8b-	8dd
.	8g	8b-	[4bb-
16G	8g	8b-	.
16A	.	.	.
=220	=220	=220	=220
4B-	8g	8b-	4.bb-]
.	8g	8b-	.
4r	8g	8b-	.
.	8g	8b-	8dd
=221	=221	=221	=221
4.r	8g	8b-	8ff
.	8g	8b-	8ee-
.	8g	8b-	[4bb-
16E-	8g	8b-	.
16F	.	.	.
=222	=222	=222	=222
4G	8g	8b-	4.bb-]
.	8g	8b-	.
4r	8g	8b-	.
.	8g	8b-	8ee-
=223	=223	=223	=223
4.r	8f	8a-	8ee-
.	8f	8a-	8dd
.	8f	8a-	[4ccc
16BB-	8f	8a-	.
16C	.	.	.
=224	=224	=224	=224
4D	8f	8a-	4.ccc]
.	8f	8a-	.
4r	8f	8a-	.
.	8f	8a-	8dd
=225	=225	=225	=225
4.r	8e-	8g	8ff
.	8e-	8g	8ee-
.	8e-	8g	[4bb-
16G	8e-	8g	.
16F	.	.	.
=226	=226	=226	=226
[2E-	8e-	8g	8bb-]
.	8e-	8g	8aa-
.	8e-	8g	8gg
.	8e-	8g	8ff
=227	=227	=227	=227
4.E-]	8e-	8g	8ff
.	8e-	8g	8ee-
.	8e-	8g	[4ee-
16G	8e-	8g	.
16F	.	.	.
=228	=228	=228	=228
[2E-	8e-	8g	4ee-]
.	8e-	8g	.
.	8e-	8g	[4dd
.	8e-	8g	.
=229	=229	=229	=229
4.E-]	8e-	8g	8dd]
.	8e-	8g	8cc#
.	8e-	8g	[4cc#
16G	8e-	8g	.
16F	.	.	.
=230	=230	=230	=230
[2E-	8g	8g	4cc#]
.	8g	8g	.
.	8g	8g	8.cc#
.	8g	8g	.
.	.	.	16dd
=231	=231	=231	=231
8E-]	4.f#	4.a	[2dd
16F#	.	.	.
16E	.	.	.
8D	.	.	.
8r	8g#	8b	.
=232	=232	=232	=232
2r	8a	8cc	2dd_
.	8a	8cc	.
.	8a	8cc	.
.	8g	8b-	.
=233	=233	=233	=233
8D	4.f#	4.a	2dd_
16F#	.	.	.
16E	.	.	.
8D	.	.	.
8r	8g#	8b	.
=234	=234	=234	=234
2r	8a	8cc	2dd_
.	8a	8cc	.
.	8a	8cc	.
.	8g	8b-	.
=235	=235	=235	=235
8D	4.f#	4.a	2dd_
16F#	.	.	.
16E	.	.	.
8D	.	.	.
8r	8g#	8b	.
=236	=236	=236	=236
2r	8a	8cc	2dd_
.	8g#	8b	.
.	8a	8cc	.
.	8g#	8b	.
=237	=237	=237	=237
4.r	[2a	[2cc	2dd_
8DD	.	.	.
=238	=238	=238	=238
8EE-	2a]	2cc]	2dd_
8EE	.	.	.
8FF	.	.	.
8FF#	.	.	.
=239	=239	=239	=239
[2GG	4g	4.B	4.dd]
.	4r	.	.
.	.	8A#	8cc#
=240	=240	=240	=240
2GG_	2r	8B	8dd
.	.	8A#	8cc#
.	.	8B	8dd
.	.	8A#	8cc#
=241	=241	=241	=241
2GG_	[2D	[2B	8dd
.	.	.	8gg
.	.	.	8bb
.	.	.	8aa
=242	=242	=242	=242
2GG]	2D_	2B]	8gg
.	.	.	8ff#
.	.	.	8ee
.	.	.	8dd
=243	=243	=243	=243
[2DD	4D]	4.A	4.cc
.	4r	.	.
.	.	8G#	8b
=244	=244	=244	=244
2DD_	2r	8A	8cc
.	.	8G#	8b
.	.	8A	8cc
.	.	8G#	8b
=245	=245	=245	=245
2DD_	[2F#	[2A	8cc
.	.	.	8ff#
.	.	.	8aa
.	.	.	8gg
=246	=246	=246	=246
2DD]	2F#]	2A]	8ff#
.	.	.	8ee
.	.	.	8dd
.	.	.	8cc
=247	=247	=247	=247
4GG	8G	8B	8b
.	4g	4b	8ddd
4r	.	.	[4ddd
.	8f#	8a#	.
=248	=248	=248	=248
2r	8g	8b	4.ddd]
.	8f#	8a#	.
.	8g	8b	.
.	8d#	8f#	8ccc
=249	=249	=249	=249
4.e	4e	4.g	8bb
.	.	.	8bb
.	4r	.	[4bb
8d#	.	8f#	.
=250	=250	=250	=250
8e	2r	8g	4.bb]
8d#	.	8f#	.
8e	.	8g	.
8B	.	8d#	8aa
=251	=251	=251	=251
4c	4e	8e	8gg
.	.	4gg	4eee
4B	4g#	.	.
.	.	[8ff	[8ddd
=252	=252	=252	=252
2A	4a	8ff]	8ddd]
.	.	4ee	4ccc#
.	4f#	.	.
.	.	[8ee-	[8ccc
=253	=253	=253	=253
4G	4g	8ee-]	8ccc]
.	.	4dd	4bb
4r	4e-	.	.
.	.	[8cc	[8aa
=254	=254	=254	=254
4r	4d	8cc]	8aa]
.	.	4b	4gg
4d#	4r	.	.
.	.	[8a	[8ff#
=255	=255	=255	=255
4e	4r	8a]	8ff#]
.	.	4g	4ee
4d	4B	.	.
.	.	[8g#	[8ff
=256	=256	=256	=256
4c#	4c#	8g#]	8ff]
.	.	4a	4ee
4c	4A	.	.
.	.	[8f#	[8ee-
=257	=257	=257	=257
4B	4B	8f#]	8ee-]
.	.	4g	4dd
4c	4c	.	.
.	.	[8a	[8cc
=258	=258	=258	=258
4d	4d	8a]	8cc]
.	.	4g	4b
4D	4d	.	.
.	.	8f#	8a
=259	=259	=259	=259
4G	4d	4g	4.bb
4r	4r	4r	.
.	.	.	8ccc
=260	=260	=260	=260
2r	4.g	4.b	8ddd
.	.	.	8ddd
.	.	.	8ddd
.	8a	8cc	8gg
=261	=261	=261	=261
2r	8b	8dd	4.gg
.	8b	8dd	.
.	8b	8dd	.
.	8e	8g	8aa
=262	=262	=262	=262
2r	4.e	4.g	8bb
.	.	.	8bb
.	.	.	8bb
.	8f#	8a	8ee
=263	=263	=263	=263
2r	8g	8b	4.ee
.	8g	8b	.
.	8g	8b	.
.	8c	8e	8ff#
=264	=264	=264	=264
4.c	4c	4.e	8gg
.	.	.	8gg
.	4r	.	8gg
8d	.	8f#	8cc
=265	=265	=265	=265
8e	2r	8g	4.cc
8e	.	8g	.
8e	.	8g	.
8A	.	8c	8dd
=266	=266	=266	=266
8A	[2c [2e	8c	8ee
8A	.	8c	8ee
8A	.	8c	8ee
8A	.	8c	8a
=267	=267	=267	=267
8A	2c_ 2e_	8cc	8aa
8A	.	8cc	8aa
8A	.	8cc	8aa
8A	.	8cc	8ee
=268	=268	=268	=268
8A	2c_ 2e_	8ee	8ccc
8A	.	8ee	8ccc
8A	.	8ee	8ccc
8A	.	8ee	8aa
=269	=269	=269	=269
8A	2c] 2e]	8cc	8eee
8A	.	8cc	8eee
8A	.	8cc	8ccc
8A	.	8cc	8aa
=270	=270	=270	=270
[2D	[2a	[2cc	2gg
=271	=271	=271	=271
4.D]	4.a]	4.cc]	4.ff#
8r	8r	8r	8gg
=272	=272	=272	=272
8BB- 8EE-	[2G [2g	[2ee- [2e-	4.gg 4.b-
8EE- 8BB-	.	.	.
8BB- 8EE-	.	.	.
8BB- 8EE-	.	.	8aa-
=273	=273	=273	=273
8BB- 8EE-	2G_ 2g_	2ee-_ 2e-_	8bb-
8BB- 8EE-	.	.	8bb-
8BB- 8EE-	.	.	8bb-
8EE- 8BB-	.	.	8ee-
=274	=274	=274	=274
8BB- 8EE-	2G_ 2g_	2ee-_ 2e-_	4.ee-
8BB- 8EE-	.	.	.
8BB- 8EE-	.	.	.
8BB- 8EE-	.	.	8ff
=275	=275	=275	=275
8EE- 8BB-	2G] 2g]	2ee-] 2e-]	8gg
8BB- 8EE-	.	.	8gg
8BB- 8EE-	.	.	8gg
8BB- 8EE-	.	.	8b-
=276	=276	=276	=276
8GG	[2G	[2e-	4.b-
8GG	.	.	.
8GG	.	.	.
8GG	.	.	16cc
.	.	.	16dd
=277	=277	=277	=277
8GG	2G]	2e-]	8ee-
8GG	.	.	8b-
8GG	.	.	8g
8GG	.	.	8e-
=278	=278	=278	=278
[2GG	2G	[2B-	2d
=279	=279	=279	=279
2GG]	2E	2B-]	2c#
=280	=280	=280	=280
[2FF#	2E-	[2A	[2c
=281	=281	=281	=281
4.FF#]	[2D	4.A]	4.c]
8GG	.	8d	8B
=282	=282	=282	=282
4.GG	2D_	[2d	4.B
8AA	.	.	8c
=283	=283	=283	=283
8BB	2D_	2d_	8d
8BB	.	.	8d
8BB	.	.	8d
8FF#	.	.	8A
=284	=284	=284	=284
4.FF#	2D_	2d_	4.A
8GG	.	.	8B
=285	=285	=285	=285
8AA	4D]	2d]	8c
8AA	.	.	8c
8AA	4r	.	8c
8GG	.	.	8B
=286	=286	=286	=286
8C	2r	2G	8e
8C	.	.	8e
8C	.	.	8e
8BB	.	.	8d
=287	=287	=287	=287
8B	2r	8d	8g
8B	.	8d	8g
8B	.	8d	8g
8A	.	8c	8f#
=288	=288	=288	=288
8F#	8d	8a	8cc
8r	8r	8r	8r
8G	8d	8g	8b
8r	8r	8r	8r
=289	=289	=289	=289
8C	8e	8e	8a
8r	8r	8r	8r
8D	8A	8c	8f#
8r	8r	8r	8r
=290	=290	=290	=290
4G	4B	4B	8g
.	.	.	16b
.	.	.	16cc
4r	4r	4r	8dd
.	.	.	16ee
.	.	.	16ff#
=291	=291	=291	=291
2r	2r	8r	8gg
.	.	16b	16gg
.	.	16cc	16aa
.	.	8dd	8bb
.	.	16gg	16bb
.	.	16aa	16ccc
=292	=292	=292	=292
2r	2r	8bb	8ddd
.	.	8bb	8ddd
.	.	8bb	8ddd
.	.	8bb	8ddd
=293	=293	=293	=293
2r	2r	8bb	8ddd
.	.	8bb	8ddd
.	.	8bb	8ddd
.	.	8bb	8ddd
=294	=294	=294	=294
2r	4.e	8bb	8ccc
.	.	8bb	8ccc
.	.	8bb	8ccc
.	16f#	8bb	8ccc
.	16g	.	.
=295	=295	=295	=295
4.d	8a	8aa	8ccc
.	4.r	8aa	8ccc
.	.	8aa	8ccc
16e	.	8aa	8ccc
16f#	.	.	.
=296	=296	=296	=296
4g	2r	8aa	8bb
.	.	8aa	8bb
4r	.	8aa	8bb
.	.	8aa	8bb
=297	=297	=297	=297
2r	4.g	8gg	8bb
.	.	8gg	8bb
.	.	8gg	8bb
.	16a	8gg	8bb
.	16b	.	.
=298	=298	=298	=298
4.c	4cc	8gg	8aa
.	.	8gg	8aa
.	4r	8gg	8aa
16d	.	8gg	8aa
16e	.	.	.
=299	=299	=299	=299
4.D	2r	8ff#	8aa
.	.	8ff#	8aa
.	.	8ff#	8aa
16E	.	8ff#	8aa
16F#	.	.	.
=300	=300	=300	=300
4G	2r	4gg	4gg
4r	.	4r	4r
=301	=301	=301	=301
4D	4c	4f# 4A	4.d
4r	4r	4r	.
.	.	.	16e
.	.	.	16f#
=302	=302	=302	=302
4GG	4B	4G 4g	4g
4r	4r	4r	4r
=303	=303	=303	=303
4.DD	4.D	4.d	4.d
16EE	16E	16e	16e
16FF#	16F#	16f#	16f#
=304	=304	=304	=304
4GG	4G	4g	4g
4r	4r	4r	4r
=305	=305	=305	=305
2r	2r	2r	2r
==	==	==	==
*-	*-	*-	*-
!!!RWG1: This file contains only pitch and duration data.
!!!RWG2: Transposing instruments are not transposed.
!!!RWG3: Spines may have incompatible meters.
!!!RWG4: Durations of rests and tied notes may be interpreted.
!!!RWG: Key is interpreted using the Humdrum key tool.
!!!GTL: 6 Quators ("Jungfernquartette")
!!!OPT: How do you do?
!!!AFT: stage1
!!!END: 1997/04/15
!!!KEY: 760730297
!!!EMD: Converted from MuseData to Humdrum Dec 16, 2000, by Andreas Kornstaedt using muse2kern.
!!!EMD: Manual editing by Craig Sapp, Nov 2001
